packages/components/icon/src/assets/icons/timer.svg

<svg width="24" height="24" viewBox="0 0 24 24" fill="none" xmlns="http://www.w3.org/2000/svg">
<path fill-rule="evenodd" clip-rule="evenodd" d="M12.1116 3C13.7603 3 15.2789 3.40857 16.6674 4.22572C18.0558 5.04288 19.1586 6.14565 19.9757 7.53409C20.7929 8.92253 21.2014 10.4411 21.2014 12.0899C21.2014 13.7386 20.7929 15.2608 19.9757 16.6565C19.1586 18.0522 18.0558 19.1586 16.6674 19.9757C15.2789 20.7929 13.7603 21.2014 12.1116 21.2014C10.4628 21.2014 8.94061 20.7929 7.54494 19.9757C6.14927 19.1586 5.04288 18.0522 4.22572 16.6565C3.40857 15.2608 3 13.7386 3 12.0899C3 10.4411 3.40857 8.92253 4.22572 7.53409C5.04288 6.14565 6.14927 5.04288 7.54494 4.22572C8.94061 3.40857 10.4628 3 12.1116 3ZM12.1116 5.27789C10.8678 5.27789 9.72521 5.58522 8.68388 6.1999C7.64256 6.81457 6.81457 7.64256 6.1999 8.68388C5.58522 9.72521 5.27789 10.8605 5.27789 12.0899C5.27789 13.3337 5.58522 14.4762 6.1999 15.5176C6.81457 16.5589 7.64256 17.3869 8.68388 18.0015C9.72521 18.6162 10.8678 18.9236 12.1116 18.9236C13.3409 18.9236 14.4762 18.6162 15.5176 18.0015C16.5589 17.3869 17.3869 16.5589 18.0015 15.5176C18.6162 14.4762 18.9236 13.3337 18.9236 12.0899C18.9236 10.8605 18.6162 9.72521 18.0015 8.68388C17.3869 7.64256 16.5589 6.81457 15.5176 6.1999C14.4762 5.58522 13.3409 5.27789 12.1116 5.27789ZM12.5455 7.1436C12.6467 7.1436 12.7335 7.17975 12.8058 7.25207C12.8781 7.32438 12.9143 7.41116 12.9143 7.5124V11.6994L16.5155 14.1291C16.6312 14.2159 16.689 14.3244 16.689 14.4545C16.689 14.5124 16.6674 14.5775 16.624 14.6498L16.1033 15.4959C16.031 15.5826 15.9514 15.6405 15.8647 15.6694H15.7779C15.7056 15.6694 15.6333 15.6477 15.5609 15.6043L11.374 12.8058L11.2655 12.7407C11.1932 12.6395 11.157 12.5455 11.157 12.4587V7.5124C11.157 7.41116 11.1932 7.32438 11.2655 7.25207C11.3667 7.17975 11.4607 7.1436 11.5475 7.1436H12.5455Z" fill="currentColor"/>
</svg>

<svg viewBox="0 0 24 24" fill="none" xmlns="http://www.w3.org/2000/svg"><path fill-rule="evenodd" clip-rule="evenodd" d="M12.112 3c1.648 0 3.167.409 4.555 1.226a9.183 9.183 0 0 1 3.309 3.308c.817 1.389 1.225 2.907 1.225 4.556s-.408 3.17-1.225 4.567a9.156 9.156 0 0 1-3.309 3.319c-1.388.817-2.907 1.225-4.555 1.225a8.877 8.877 0 0 1-4.567-1.225 9.13 9.13 0 0 1-3.32-3.32A8.878 8.878 0 0 1 3 12.09c0-1.649.409-3.167 1.226-4.556a9.157 9.157 0 0 1 3.319-3.308A8.878 8.878 0 0 1 12.112 3Zm0 2.278a6.62 6.62 0 0 0-3.428.922A6.93 6.93 0 0 0 6.2 8.684a6.58 6.58 0 0 0-.922 3.406 6.62 6.62 0 0 0 .922 3.428A6.93 6.93 0 0 0 8.684 18a6.62 6.62 0 0 0 3.428.923 6.58 6.58 0 0 0 3.406-.922A6.93 6.93 0 0 0 18 15.518a6.62 6.62 0 0 0 .923-3.428 6.58 6.58 0 0 0-.922-3.406A6.93 6.93 0 0 0 15.518 6.2a6.58 6.58 0 0 0-3.406-.922Zm.434 1.866c.1 0 .188.036.26.108.072.072.108.16.108.26V11.7l3.601 2.43a.393.393 0 0 1 .174.325.389.389 0 0 1-.065.196l-.52.846a.534.534 0 0 1-.24.173h-.086a.419.419 0 0 1-.217-.065l-4.187-2.798-.109-.065a.496.496 0 0 1-.108-.282V7.512c0-.1.036-.188.108-.26a.495.495 0 0 1 .282-.108h.998Z" fill="currentColor"/></svg>
